X: 41100
T: Trip To Seppeltsfield, The
R: reel
M: 4/4
K: Dmajor
|:AF F2 G3B|DF F2 EFGB|df f2 A3d|(3Bcd ec d3B|
AF F2 G3B|AD F2 EFGB|dfef df f2|(3Bcd ec d2 d2:|
|:df f2 A2 fa|bgaf gfef|df f2 A3d|(3Bcd ec d3A|
df f2 A3d|cdef gece|dfef df f2|(3Bcd ec d2 d2:|

